icons/angry_fill.svg

<svg width="48" height="48" viewBox="0 0 48 48" fill="none" xmlns="http://www.w3.org/2000/svg">
<path d="M31.1096 32.8759C29.6418 31.7507 26.9988 31 23.9824 31C20.737 31 17.9239 31.8691 16.5415 33.1386C15.9452 33.6862 15.3756 35.3447 17.5497 34.9359C23.878 33.6758 24.4931 33.7222 30.6988 34.9359C32.2848 35.276 32.1457 34.0519 31.7107 33.4262C31.5724 33.2274 31.3758 33.0781 31.1819 32.931L31.1096 32.8759Z" fill="black"/>
<path d="M20 24C20 26.2091 18.8807 28 17.5 28C16.1193 28 15 26.2091 15 24C15 22.3859 15.5975 20.9952 16.4579 20.363L16.439 20.3567C14.7999 19.8158 13.1581 19.4658 12.1051 19.311L12.3959 17.3323C13.5552 17.5027 15.3099 17.878 17.0658 18.4575C18.7979 19.0292 20.6477 19.8367 21.9034 20.9218L20.5956 22.4351C20.2987 22.1785 19.9439 21.9329 19.5455 21.6998C19.8319 22.3504 20 23.1438 20 24Z" fill="black"/>
<path d="M33 24C33 26.2091 31.8807 28 30.5 28C29.1193 28 28 26.2091 28 24C28 22.9751 28.2409 22.0402 28.6371 21.3324C27.9572 21.6703 27.362 22.0396 26.9044 22.4351L25.5966 20.9218C26.8523 19.8367 28.7021 19.0292 30.4342 18.4575C32.1901 17.878 33.9448 17.5027 35.1041 17.3323L35.3949 19.311C34.41 19.4558 32.91 19.7713 31.3789 20.2542C32.326 20.8234 33 22.2857 33 24Z" fill="black"/>
<path fill-rule="evenodd" clip-rule="evenodd" d="M24 42C33.9411 42 42 33.9411 42 24C42 14.0589 33.9411 6 24 6C14.0589 6 6 14.0589 6 24C6 33.9411 14.0589 42 24 42ZM24 40C32.8366 40 40 32.8366 40 24C40 15.1634 32.8366 8 24 8C15.1634 8 8 15.1634 8 24C8 32.8366 15.1634 40 24 40Z" fill="black"/>
</svg>

<svg
  xmlns="http://www.w3.org/2000/svg"
  width="24"
  height="24"
  viewBox="0 0 24 24"
  fill="none"
  stroke="currentColor"
  stroke-width="2"
  stroke-linecap="round"
  stroke-linejoin="round"
>
  <path d="M31.11 32.876C29.642 31.75 26.999 31 23.982 31c-3.245 0-6.058.87-7.44 2.139-.597.547-1.166 2.206 1.008 1.797 6.328-1.26 6.943-1.214 13.149 0 1.586.34 1.447-.884 1.012-1.51-.139-.199-.335-.348-.53-.495z" />
  <path d="M20 24c0 2.21-1.12 4-2.5 4S15 26.21 15 24c0-1.614.598-3.005 1.458-3.637l-.019-.006c-1.64-.541-3.28-.891-4.334-1.046l.29-1.979c1.16.17 2.915.546 4.67 1.125 1.733.572 3.583 1.38 4.838 2.465l-1.307 1.513a7 7 0 0 0-1.05-.735c.286.65.454 1.444.454 2.3" />
  <path d="M33 24c0 2.21-1.12 4-2.5 4S28 26.21 28 24c0-1.025.24-1.96.637-2.668-.68.338-1.275.708-1.733 1.103l-1.307-1.513c1.255-1.085 3.105-1.893 4.837-2.465 1.756-.579 3.51-.954 4.67-1.125l.29 1.979a27.5 27.5 0 0 0-4.015.943C32.326 20.824 33 22.286 33 24" />
  <path
    fill-rule="evenodd"
    d="M24 42c9.941 0 18-8.059 18-18S33.941 6 24 6 6 14.059 6 24s8.059 18 18 18m0-2c8.837 0 16-7.163 16-16S32.837 8 24 8 8 15.163 8 24s7.163 16 16 16"
    clip-rule="evenodd"
  />
</svg>
